doc/bb02-firmware-arch.svg

<!DOCTYPE svg PUBLIC "-//W3C//DTD SVG 1.1//EN" "http://www.w3.org/Graphics/SVG/1.1/DTD/svg11.dtd">
<svg xmlns="http://www.w3.org/2000/svg" xmlns:xlink="http://www.w3.org/1999/xlink" version="1.1" width="561px" height="451px" viewBox="-0.5 -0.5 561 451" content="&lt;mxfile modified=&quot;2019-06-06T15:47:25.792Z&quot; host=&quot;www.draw.io&quot; agent=&quot;Mozilla/5.0 (X11; Ubuntu; Linux x86_64; rv:67.0) Gecko/20100101 Firefox/67.0&quot; version=&quot;10.7.5&quot; etag=&quot;hmeojT7bOtoOdBUJE2kG&quot; type=&quot;google&quot;&gt;&lt;diagram id=&quot;DWP8JnewohswD9xJtiJV&quot;&gt;5Vpdj9sqEP01lm4ftjLGX3ncJNveSq3uSlHV9qlibZLQEmNh0iT99RfHYJvgZq2us26z+7IwwABnzgwMjgNnm/1bjvL1B5Zi6nhuunfg3PE8ACee/FdKDpUkiieVYMVJqjo1ggX5iZXQVdItSXFhdBSMUUFyU5iwLMOJMGSIc7Yzuy0ZNWfN0QpbgkWCqC39RFKxrqRx4DbyfzFZrfXMwFUtG6Q7K0GxRinbtUTwzoEzzpioSpv9DNMSPI1LNe7NL1rrhXGciT4DlCF+ILpVe1PrEge9Wc62WYrL/q4Dp7s1EXiRo6Rs3UnzStlabKisAVlU6jAXeP/LJYF6o5IhmG2w4AfZRQ3wYoWNIoevqrsG6ZoI6zbKGlOkrLuqVTcAyILCoBsP+Dge0mR5WVxSvL8tySS3jbNUFecJRUVBEiksBOLCFrfQkojww+cS2deBrn5pt833CvaqdtC1PRGtYbL2pdXSDCoreky1D5yeMFuucYWFQYYepmrZIugwhZZxTJEgP8wZu8yjZrhnRE5cMwHGgcGEmgpaRcG2PMFqVJvlJ4p8aFIKRCeKKhQsRUe21NvuRSDfItDHxdTikPQOYVKB44L8RA/HDqW58nItx9UFUyeYSwmiZJWVTJLGwVwKSi8jMijdqoYNSdNy/JSiB0ynKPm+OvrujFHGj/PC5fHvnJ+qkKlW0gSqNingWf+9cV/DKIoNwG8mgxBCq9FaQWRqYMtlgZ9qweDPC4nAjbodoe2HYYcj1p74lJgYWvsvo8hCVRkXa7ZiGaJ3jXRqItT0ec9YrnD5hoU4qLMdbQXrFxrd3wqN4HdCYxVdFJCuHS7BpLcde/O+r00ii6SL+3dfXctSf3egCc96hYwzgW/GGRAOE2e0npMryKBxJu4y4QszYOSHJ0f8MPbzDKXxBaw3GSUoPmNwi8YLbvp2f9WuMXnENULf95/mDPUt6QL0B8Ayx5XxPx6R/3ZW/s6bXRn/wfkrr8wiPPNoeKI3KL2Bb543F3EOeO3OEY7oHHaGfTu/Oud4NMUG0cnN6QbCQRwEmqmm1jqsg9g59ouzoXRTzzWzl2EM6J1EuEvkLjoAtG9olKSYF5YRn/utJNA5RJ27KZBbbyX1U7HxaOkNEJzsvNyZec40WMxHB8YLxwSmI9vFyZZjKZutSe54IS19/YHL0qos/YMETpLQjdGr0aGrP1iNAt3Egu6/93fj8wnAEUHx7BTxw+xjJ4sKtEkD8E3O9wcQ6eRO6+lD/FkwAxZmUyKmbO96PY7eQnD2HetTMmNZeYYuCaUnIn0AU7wU547fLrBNcyxZJvSdGQwAPtD38voV3QZff3EyHtEHeEPXh1IL+/s+F56/H3UvNu8j+lXjOUDv8TV37AgQ2V9yOgNAOAQedupUBQApu83zF0FHqF9uNf7wUnSU1eZ3HNUdu/k1DLz7Hw==&lt;/diagram&gt;&lt;/mxfile&gt;"><defs/><g><rect x="173" y="0" width="210" height="120" fill="#ffffff" stroke="#000000" pointer-events="none"/><path d="M 283 180.5 L 293.5 180.5 L 278 199.5 L 262.5 180.5 L 273 180.5 L 273 139.5 L 262.5 139.5 L 278 120.5 L 293.5 139.5 L 283 139.5 Z" fill="none" stroke="#000000" stroke-linejoin="round" stroke-miterlimit="10" pointer-events="none"/><g transform="translate(264.5,152.5)"><switch><foreignObject style="overflow:visible;" pointer-events="all" width="27" height="12" requiredFeatures="http://www.w3.org/TR/SVG11/feature#Extensibility"><div xmlns="http://www.w3.org/1999/xhtml" style="display: inline-block; font-size: 12px; font-family: Helvetica; color: rgb(0, 0, 0); line-height: 1.2; vertical-align: top; white-space: nowrap; text-align: center;"><div xmlns="http://www.w3.org/1999/xhtml" style="display:inline-block;text-align:inherit;text-decoration:inherit;background-color:#ffffff;">USB</div></div></foreignObject><text x="14" y="12" fill="#000000" text-anchor="middle" font-size="12px" font-family="Helvetica">USB</text></switch></g><rect x="0" y="200" width="560" height="250" fill="#ffffff" stroke="#000000" pointer-events="none"/><path d="M 278 277 L 278 323 L 85 323 L 85 361.63" fill="none" stroke="#000000" stroke-miterlimit="10" pointer-events="none"/><path d="M 85 366.88 L 81.5 359.88 L 85 361.63 L 88.5 359.88 Z" fill="#000000" stroke="#000000" stroke-miterlimit="10" pointer-events="none"/><g transform="translate(98.5,373.5)"><switch><foreignObject style="overflow:visible;" pointer-events="all" width="35" height="12" requiredFeatures="http://www.w3.org/TR/SVG11/feature#Extensibility"><div xmlns="http://www.w3.org/1999/xhtml" style="display: inline-block; font-size: 12px; font-family: Helvetica; color: rgb(0, 0, 0); line-height: 1.2; vertical-align: top; white-space: nowrap; text-align: center;"><div xmlns="http://www.w3.org/1999/xhtml" style="display:inline-block;text-align:inherit;text-decoration:inherit;background-color:#ffffff;">SPI_0</div></div></foreignObject><text x="18" y="12" fill="#000000" text-anchor="middle" font-size="12px" font-family="Helvetica">SPI_0</text></switch></g><g transform="translate(74.5,334.5)"><switch><foreignObject style="overflow:visible;" pointer-events="all" width="21" height="12" requiredFeatures="http://www.w3.org/TR/SVG11/feature#Extensibility"><div xmlns="http://www.w3.org/1999/xhtml" style="display: inline-block; font-size: 12px; font-family: Helvetica; color: rgb(0, 0, 0); line-height: 1.2; vertical-align: top; white-space: nowrap; text-align: center;"><div xmlns="http://www.w3.org/1999/xhtml" style="display:inline-block;text-align:inherit;text-decoration:inherit;background-color:#ffffff;">SPI</div></div></foreignObject><text x="11" y="12" fill="#000000" text-anchor="middle" font-size="12px" font-family="Helvetica">SPI</text></switch></g><path d="M 278 277 L 278 323 L 215 323 L 215 361.63" fill="none" stroke="#000000" stroke-miterlimit="10" pointer-events="none"/><path d="M 215 366.88 L 211.5 359.88 L 215 361.63 L 218.5 359.88 Z" fill="#000000" stroke="#000000" stroke-miterlimit="10" pointer-events="none"/><g transform="translate(204.5,334.5)"><switch><foreignObject style="overflow:visible;" pointer-events="all" width="21" height="12" requiredFeatures="http://www.w3.org/TR/SVG11/feature#Extensibility"><div xmlns="http://www.w3.org/1999/xhtml" style="display: inline-block; font-size: 12px; font-family: Helvetica; color: rgb(0, 0, 0); line-height: 1.2; vertical-align: top; white-space: nowrap; text-align: center;"><div xmlns="http://www.w3.org/1999/xhtml" style="display:inline-block;text-align:inherit;text-decoration:inherit;background-color:#ffffff;">SPI</div></div></foreignObject><text x="11" y="12" fill="#000000" text-anchor="middle" font-size="12px" font-family="Helvetica">SPI</text></switch></g><path d="M 278 277 L 278 323 L 345 323 L 345 361.63" fill="none" stroke="#000000" stroke-miterlimit="10" pointer-events="none"/><path d="M 345 366.88 L 341.5 359.88 L 345 361.63 L 348.5 359.88 Z" fill="#000000" stroke="#000000" stroke-miterlimit="10" pointer-events="none"/><g transform="translate(334.5,334.5)"><switch><foreignObject style="overflow:visible;" pointer-events="all" width="22" height="12" requiredFeatures="http://www.w3.org/TR/SVG11/feature#Extensibility"><div xmlns="http://www.w3.org/1999/xhtml" style="display: inline-block; font-size: 12px; font-family: Helvetica; color: rgb(0, 0, 0); line-height: 1.2; vertical-align: top; white-space: nowrap; text-align: center;"><div xmlns="http://www.w3.org/1999/xhtml" style="display:inline-block;text-align:inherit;text-decoration:inherit;background-color:#ffffff;">I2C</div></div></foreignObject><text x="11" y="12" fill="#000000" text-anchor="middle" font-size="12px" font-family="Helvetica">I2C</text></switch></g><path d="M 278 277 L 278 323 L 475 323 L 475 361.63" fill="none" stroke="#000000" stroke-miterlimit="10" pointer-events="none"/><path d="M 475 366.88 L 471.5 359.88 L 475 361.63 L 478.5 359.88 Z" fill="#000000" stroke="#000000" stroke-miterlimit="10" pointer-events="none"/><g transform="translate(374.5,383.5)"><switch><foreignObject style="overflow:visible;" pointer-events="all" width="28" height="12" requiredFeatures="http://www.w3.org/TR/SVG11/feature#Extensibility"><div xmlns="http://www.w3.org/1999/xhtml" style="display: inline-block; font-size: 12px; font-family: Helvetica; color: rgb(0, 0, 0); line-height: 1.2; vertical-align: top; white-space: nowrap; text-align: center;"><div xmlns="http://www.w3.org/1999/xhtml" style="display:inline-block;text-align:inherit;text-decoration:inherit;background-color:#ffffff;">ADC</div></div></foreignObject><text x="14" y="12" fill="#000000" text-anchor="middle" font-size="12px" font-family="Helvetica">ADC</text></switch></g><g transform="translate(461.5,334.5)"><switch><foreignObject style="overflow:visible;" pointer-events="all" width="28" height="12" requiredFeatures="http://www.w3.org/TR/SVG11/feature#Extensibility"><div xmlns="http://www.w3.org/1999/xhtml" style="display: inline-block; font-size: 12px; font-family: Helvetica; color: rgb(0, 0, 0); line-height: 1.2; vertical-align: top; white-space: nowrap; text-align: center;"><div xmlns="http://www.w3.org/1999/xhtml" style="display:inline-block;text-align:inherit;text-decoration:inherit;background-color:#ffffff;">ADC</div></div></foreignObject><text x="14" y="12" fill="#000000" text-anchor="middle" font-size="12px" font-family="Helvetica">ADC</text></switch></g><rect x="415" y="368" width="120" height="52" fill="#ffffff" stroke="#000000" pointer-events="none"/><g transform="translate(453.5,387.5)"><switch><foreignObject style="overflow:visible;" pointer-events="all" width="43" height="12" requiredFeatures="http://www.w3.org/TR/SVG11/feature#Extensibility"><div xmlns="http://www.w3.org/1999/xhtml" style="display: inline-block; font-size: 12px; font-family: Helvetica; color: rgb(0, 0, 0); line-height: 1.2; vertical-align: top; width: 44px; white-space: nowrap; overflow-wrap: normal; text-align: center;"><div xmlns="http://www.w3.org/1999/xhtml" style="display:inline-block;text-align:inherit;text-decoration:inherit;">Sliders</div></div></foreignObject><text x="22" y="12" fill="#000000" text-anchor="middle" font-size="12px" font-family="Helvetica">Sliders</text></switch></g><rect x="155" y="368" width="120" height="52" fill="#ffffff" stroke="#000000" pointer-events="none"/><g transform="translate(201.5,387.5)"><switch><foreignObject style="overflow:visible;" pointer-events="all" width="26" height="12" requiredFeatures="http://www.w3.org/TR/SVG11/feature#Extensibility"><div xmlns="http://www.w3.org/1999/xhtml" style="display: inline-block; font-size: 12px; font-family: Helvetica; color: rgb(0, 0, 0); line-height: 1.2; vertical-align: top; width: 27px; white-space: nowrap; overflow-wrap: normal; text-align: center;"><div xmlns="http://www.w3.org/1999/xhtml" style="display:inline-block;text-align:inherit;text-decoration:inherit;">µSD</div></div></foreignObject><text x="13" y="12" fill="#000000" text-anchor="middle" font-size="12px" font-family="Helvetica">µSD</text></switch></g><rect x="285" y="368" width="120" height="52" fill="#ffffff" stroke="#000000" pointer-events="none"/><g transform="translate(306.5,380.5)"><switch><foreignObject style="overflow:visible;" pointer-events="all" width="76" height="27" requiredFeatures="http://www.w3.org/TR/SVG11/feature#Extensibility"><div xmlns="http://www.w3.org/1999/xhtml" style="display: inline-block; font-size: 12px; font-family: Helvetica; color: rgb(0, 0, 0); line-height: 1.2; vertical-align: top; width: 77px; white-space: nowrap; overflow-wrap: normal; text-align: center;"><div xmlns="http://www.w3.org/1999/xhtml" style="display:inline-block;text-align:inherit;text-decoration:inherit;">Secure Chip<br />(atecc608a)</div></div></foreignObject><text x="38" y="20" fill="#000000" text-anchor="middle" font-size="12px" font-family="Helvetica">Secure Chip&lt;br&gt;(atecc608a)</text></switch></g><rect x="25" y="368" width="120" height="52" fill="#ffffff" stroke="#000000" pointer-events="none"/><g transform="translate(66.5,387.5)"><switch><foreignObject style="overflow:visible;" pointer-events="all" width="37" height="12" requiredFeatures="http://www.w3.org/TR/SVG11/feature#Extensibility"><div xmlns="http://www.w3.org/1999/xhtml" style="display: inline-block; font-size: 12px; font-family: Helvetica; color: rgb(0, 0, 0); line-height: 1.2; vertical-align: top; width: 38px; white-space: nowrap; overflow-wrap: normal; text-align: center;"><div xmlns="http://www.w3.org/1999/xhtml" style="display:inline-block;text-align:inherit;text-decoration:inherit;">OLED</div></div></foreignObject><text x="19" y="12" fill="#000000" text-anchor="middle" font-size="12px" font-family="Helvetica">OLED</text></switch></g><rect x="218" y="225" width="120" height="52" fill="#ffffff" stroke="#000000" pointer-events="none"/><g transform="translate(229.5,237.5)"><switch><foreignObject style="overflow:visible;" pointer-events="all" width="97" height="27" requiredFeatures="http://www.w3.org/TR/SVG11/feature#Extensibility"><div xmlns="http://www.w3.org/1999/xhtml" style="display: inline-block; font-size: 12px; font-family: Helvetica; color: rgb(0, 0, 0); line-height: 1.2; vertical-align: top; width: 98px; white-space: nowrap; overflow-wrap: normal; text-align: center;"><div xmlns="http://www.w3.org/1999/xhtml" style="display:inline-block;text-align:inherit;text-decoration:inherit;">MCU<br />(atsamd51j20a)</div></div></foreignObject><text x="49" y="20" fill="#000000" text-anchor="middle" font-size="12px" font-family="Helvetica">MCU&lt;br&gt;(atsamd51j20a)</text></switch></g><g transform="translate(7.5,208.5)"><switch><foreignObject style="overflow:visible;" pointer-events="all" width="62" height="12" requiredFeatures="http://www.w3.org/TR/SVG11/feature#Extensibility"><div xmlns="http://www.w3.org/1999/xhtml" style="display: inline-block; font-size: 12px; font-family: Helvetica; color: rgb(0, 0, 0); line-height: 1.2; vertical-align: top; width: 63px; white-space: nowrap; overflow-wrap: normal; font-weight: bold;"><div xmlns="http://www.w3.org/1999/xhtml" style="display:inline-block;text-align:inherit;text-decoration:inherit;">BitBox02</div></div></foreignObject><text x="31" y="12" fill="#000000" text-anchor="middle" font-size="12px" font-family="Helvetica" font-weight="bold">BitBox02</text></switch></g><g transform="translate(178.5,7.5)"><switch><foreignObject style="overflow:visible;" pointer-events="all" width="19" height="12" requiredFeatures="http://www.w3.org/TR/SVG11/feature#Extensibility"><div xmlns="http://www.w3.org/1999/xhtml" style="display: inline-block; font-size: 12px; font-family: Helvetica; color: rgb(0, 0, 0); line-height: 1.2; vertical-align: top; width: 20px; white-space: nowrap; overflow-wrap: normal; font-weight: bold;"><div xmlns="http://www.w3.org/1999/xhtml" style="display:inline-block;text-align:inherit;text-decoration:inherit;">PC</div></div></foreignObject><text x="10" y="12" fill="#000000" text-anchor="middle" font-size="12px" font-family="Helvetica" font-weight="bold">PC</text></switch></g><rect x="218" y="30" width="120" height="60" fill="#ffffff" stroke="#000000" pointer-events="none"/><g transform="translate(223.5,36.5)"><switch><foreignObject style="overflow:visible;" pointer-events="all" width="75" height="12" requiredFeatures="http://www.w3.org/TR/SVG11/feature#Extensibility"><div xmlns="http://www.w3.org/1999/xhtml" style="display: inline-block; font-size: 12px; font-family: Helvetica; color: rgb(0, 0, 0); line-height: 1.2; vertical-align: top; width: 76px; white-space: nowrap; overflow-wrap: normal; font-weight: bold;"><div xmlns="http://www.w3.org/1999/xhtml" style="display:inline-block;text-align:inherit;text-decoration:inherit;">BitBox App</div></div></foreignObject><text x="38" y="12" fill="#000000" text-anchor="middle" font-size="12px" font-family="Helvetica" font-weight="bold">BitBox App</text></switch></g></g></svg>

<svg xmlns="http://www.w3.org/2000/svg" width="561" height="451" viewBox="-0.5 -0.5 561 451" font-family="Helvetica" font-size="12" text-anchor="middle">
  <path fill="#fff" stroke="#000" d="M173 0h210v120H173Z"/>
  <path fill="none" stroke="#000" stroke-linejoin="round" stroke-miterlimit="10" d="M283 180.5h10.5l-15.5 19-15.5-19H273v-41h-10.5l15.5-19 15.5 19H283Z"/>
  <path fill="#fff" stroke="#fff" stroke-width="12" d="M255.202 158.836h46.29v1.447h-46.29z"/>
  <text x="278.5" y="164.5">USB</text>
  <path fill="#fff" stroke="#000" d="M0 200h560v250H0Z"/>
  <path fill="none" stroke="#000" stroke-miterlimit="10" d="M278 277v46H85v38.6"/>
  <path stroke="#000" stroke-miterlimit="10" d="m85 366.9-3.5-7 3.5 1.7 3.5-1.7z"/>
  <path fill="none" stroke="#000" stroke-miterlimit="10" d="M278 277v46h-63v38.6"/>
  <path stroke="#000" stroke-miterlimit="10" d="m215 366.9-3.5-7 3.5 1.7 3.5-1.7z"/>
  <path fill="none" stroke="#000" stroke-miterlimit="10" d="M278 277v46h67v38.6"/>
  <path stroke="#000" stroke-miterlimit="10" d="m345 366.9-3.5-7 3.5 1.7 3.5-1.7z"/>
  <path fill="none" stroke="#000" stroke-miterlimit="10" d="M278 277v46h197v38.6"/>
  <path fill="#fff" stroke="#fff" stroke-width="12.542" d="M78.97 342.564h403.049v.181H78.97z"/>
  <path stroke="#000" stroke-miterlimit="10" d="m475 366.9-3.5-7 3.5 1.7 3.5-1.7z"/>
  <text x="388.5" y="395.5">ADC</text>
  <path fill="#fff" stroke="#000" d="M415 368h120v52H415Z"/>
  <text x="475.5" y="399.5">Sliders</text>
  <path fill="#fff" stroke="#000" d="M155 368h120v52H155Z"/>
  <text x="214.5" y="399.5">µSD</text>
  <path fill="#fff" stroke="#000" d="M285 368h120v52H285Z"/>
  <text x="344.5" y="390.5"><tspan x="344.5" y="390.5">Secure Chip</tspan><tspan x="344.5" y="405.5">(ATECC608B)</tspan></text>
  <path fill="#fff" stroke="#000" d="M25 368h120v52H25Z"/>
  <text x="85.5" y="399.5">OLED</text>
  <path fill="#fff" stroke="#000" d="M218 225h120v52H218Z"/>
  <text x="278.5" y="247.5"><tspan x="278.5" y="247.5">MCU</tspan><tspan x="278.5" y="262.5">(ATSAMD51J20A)</tspan></text>
  <text x="38.5" y="220.5" font-weight="bold">BitBox02</text>
  <text x="188.5" y="19.5" font-weight="bold">PC</text>
  <path fill="#fff" stroke="#000" d="M218 30h120v60H218Z"/>
  <text x="261.5" y="48.5" color="#000" font-weight="bold" style="-inkscape-font-specification:Helvetica">BitBoxApp</text>
  <text x="85.5" y="346.5">SPI</text>
  <text x="345.5" y="346.5">I2C</text>
  <text x="475.5" y="346.5">ADC</text>
  <text x="215.5" y="346.5">SPI</text>
</svg>
